X:1
T:Yiddish
T:Allan Small bew. Wim Verkaik
T:Rozhinkes mit mandlen
%%score 1 2 3 4
L:1/8
Q:1/4=96
M:3/4
K:Eb
V:1 treble nm="MusicXML Part"
V:2 treble nm="MusicXML Part"
V:3 treble-8 nm="MusicXML Part"
V:4 bass nm="MusicXML Part"
V:1
 z2 z2 GG | [Gc]4 G2 | [Gc]2 [Gc]2 GG | [GB]2 [G=A]2 [GB]2 | [Gc]2 G4 | [GB]2 [G=A]2 [GB]2 | %6
w: In dem|beis ha-|mik- dash, In a|vin- * kl|chei- der,|Zitzt di al-|
 [Gd]2 [Gc]2 [GB]2 | [=Ac]2 [GB]2 A2 | G4 GG | B3 B B2 | B2 B2 B2 | B2 E2 F2 | G2 B,3 B, | %13
w: mo- ne Bas|tzi- yon a-|lein. Ir ben|yo- chi- dl|Yi- de- le|vigt zi ke-|sei- der, Un|
 B,2 E2 F2 | G2 F2 E2 | F2 E2 D2 | C6 | [Gc][Ad] [Gc][Ad] [Gc][Ad] | [Gc]6 | CD CD CD | C6 | %21
w: zingt im zum|shlo- fn a|li- de- le|shein.|Ah _ _ _ _ _|_|Ah _ _ _ _ _|_|
 z2 GF EF | G6 | CD CD CD | C6 | z2 GF EF | G6 | G z G z G z | G z G z G z | G z G z G z | e2 c4 | %31
w: vi- * ge- *|le|Ah _ _ _ _ _|_|tzi- * ge- *|le.|tzi- ge- le|tzi- ge- le|tzi- ge- le|han- dlen,|
 c z c z c z | c z c z c z | z2 GF EF | G6 | G z G z G z | G z G z G z | G z G z G z | e2 c4 | %39
w: tzi- ge- le|tzi- ge- le|Ah _ _ _|_|Ro- zhin- kes|Ro- zhin- kes|Ro- zhin- kes|man- dlen.|
 G4 G2 | =B2 A2 G2 | c6- | c6 | [=Bd]2 [ce]2 [df]2 | [df]2 [ce]2 [=Bd]2 | c3 G ed | c6- | c4 |] %48
w: Shlof zhe|Yi- de- le|shlof,|_|Shlof _ zhe|Yi- de- le|shlof. _ _ _|_||
V:2
 z2 z2 GG | E4 G2 | E2 E2 GG | D2 C2 D2 | E2 G4 | D2 C2 D2 | B2 =A2 G2 | D2 =E2 ^F2 | G4 z2 | %9
w: In dem|beis ha-|mik- dash, In a|vin- * kl|chei- der,|Zitzt di al-|mo- ne Bas|tzi- yon a-|lein.|
 B,6- | B,6- | B,6- | B,6- | B,6- | B,6 | C4 =B,2 | C6 | C2 E2 G2 | [CE]6 | CD CD CD | C6 | %21
w: Du|_|||||||Ah _ _|_|Ah _ _ _ _ _|_|
 z2 ED CD | E6 | CD CD CD | C6 | z2 ED CD | E6 | F z F z F z | F z F z F z | E z E z E z | G2 E4 | %31
w: vi- * ge- *|le|Ah _ _ _ _ _|_|tzi- * ge- *|le.|tzi- ge- le|tzi- ge- le|tzi- ge- le|han- dlen,|
 F z F z F z | F z F z F z | z2 ED CD | E6 | F z F z F z | F z F z F z | E z E z E z | G2 E4 | %39
w: tzi- ge- le|tzi- ge- le|Ah _ _ _|_|Ro- zhin- kes|Ro- zhin- kes|Ro- zhin- kes|man- dlen.|
 G4 G2 | G2 G2 G2 | E2 G2 A2 | B2 A2 G2 | =B4 B2 | =B2 B2 B2 | c3 G A2 | G3 F A2 | G4 |] %48
w: Shlof zhe|Yi- de- le|shlof, _ _|_ _ _|Shlof zhe|Yi- de- le|shlof. _ _|_ _ _||
V:3
 z6 | z6 | z6 | z6 | z6 | z6 | z6 | z6 | z6 | G6- | G6- | G6- | G6- | G6- | G6 | A2 G4 | G6 | z6 | %18
w: |||||||||Du|_||||||||
 z2 z2 CE | G2 G2 G2 | G3 F EF | G6- | G4 CE | G4 G2 | G3 F EF | G6- | G4 x2 | =B z B z B z | %28
w: Un- ter|Yi- de- le's|vi- * ge- *|le|_ shteit a|klor vais|tzi- * ge- *|le.|_|tzi- ge- le|
 =B z B z B z | c z c z c z | c2 G4 | A4 A2 | A2 =B2 c2 | G6- | G6 | =B z B z B z | =B z B z B z | %37
w: tzi- ge- le|tzi- ge- le|han- dlen,|Dos vet|zain dain be-|ruf.|_|Ro- zhin- kes|Ro- zhin- kes|
 c z c z c z | c2 G4 | G4 G2 | d2 =B2 B2 | c2 E2 F2 | G2 F2 E2 | A4 A2 | d2 e2 f2 | e3 d c2 | e6- | %47
w: Ro- zhin- kes|man- dlen.|Shlof zhe|Yi- de- le|shlof, _ _|_ _ _|Shlof zhe|Yi- de- le|shlof. _ _|_|
 e4 |] %48
w: |
V:4
 z6 | z6 | z6 | z6 | z6 | z6 | z6 | z6 | z6 | E,6- | E,6- | E,6- | E,6- | E,6- | E,6 | F,6 | E,6 | %17
w: |||||||||Du|_|||||||
 z6 | z2 z2 C,E, | E,2 E,2 E,2 | E,3 D, C,D, | E,6- | E,4 C,E, | E,4 E,2 | E,3 D, C,D, | E,6- | %26
w: |Un- ter|Yi- de- le's|vi- * ge- *|le|_ shteit a|klor vais|tzi- * ge- *|le.|
 E,4 G,2 | D,D, D,2 D,E, | F,G,/F,/ E,2 D,2 | E,2 C,4- | C,6 | F,4 F,2 | F,2 G,2 A,2 | E,6- | E,6 | %35
w: _ Dos|tzi- ge- le is ge-|fo- * * * rn|han- dlen,|_|Dos vet|zain dain be-|ruf.|_|
 D,4 E,2 | F,G,/F,/ E,2 D,2 | E,2 C,4- | C,6 | G,4 G,2 | F,2 E,2 D,2 | C,2- C,2 D,2 | E,2 D,2 C,2 | %43
w: Ro- zhin-|kes _ _ _ mit|man- dlen.|_|Shlof zhe|Yi- de- le|shlof, _ _|_ _ _|
 F,4 F,2 | G,2 G,2 G,2 | C,6- | C,6- | C,4 |] %48
w: Shlof zhe|Yi- de- le|shlof.|_||

